icons/speaker-cross-outline.svg

<svg xmlns="http://www.w3.org/2000/svg" width="24" height="24" viewBox="0 0 24 24">
  <path d="M11.375305,4.21913119 C12.0300683,3.69532051 13,4.16149379 13,5 L13,5 L13,19 C13,19.8385062 12.0300683,20.3046795 11.375305,19.7808688 L11.375305,19.7808688 L6.65,16 L4,16 C2.9456382,16 2.08183488,15.1841222 2.00548574,14.1492623 L2.00548574,14.1492623 L2,14 L2,10 C2,8.8954305 2.8954305,8 4,8 L4,8 L6.649,8 Z M11,7.079 L7.62469505,9.78086881 C7.447382,9.92271925 7.2270715,10 7,10 L7,10 L4,10 L4,14 L7,14 C7.2270715,14 7.447382,14.0772808 7.62469505,14.2191312 L7.62469505,14.2191312 L11,16.92 L11,7.079 Z M16.6128994,9.20970461 L16.7071068,9.29289322 L18,10.5851227 L19.2928932,9.29289322 C19.6834175,8.90236893 20.3165825,8.90236893 20.7071068,9.29289322 C21.0675907,9.65337718 21.0953203,10.2206082 20.7902954,10.6128994 L20.7071068,10.7071068 L19.414,11.9991227 L20.7071068,13.2928932 C21.0976311,13.6834175 21.0976311,14.3165825 20.7071068,14.7071068 C20.3466228,15.0675907 19.7793918,15.0953203 19.3871006,14.7902954 L19.2928932,14.7071068 L18,13.4141227 L16.7071068,14.7071068 C16.3165825,15.0976311 15.6834175,15.0976311 15.2928932,14.7071068 C14.9324093,14.3466228 14.9046797,13.7793918 15.2097046,13.3871006 L15.2928932,13.2928932 L16.585,11.9991227 L15.2928932,10.7071068 C14.9023689,10.3165825 14.9023689,9.68341751 15.2928932,9.29289322 C15.6533772,8.93240926 16.2206082,8.90467972 16.6128994,9.20970461 Z"/>
</svg>

<svg xmlns="http://www.w3.org/2000/svg" viewBox="0 0 24 24">
  <path d="M11.38 4.22A1 1 0 0 1 13 5v14a1 1 0 0 1-1.62.78L6.65 16H4a2 2 0 0 1-2-1.85V10c0-1.1.9-2 2-2h2.65zM11 7.08l-3.38 2.7A1 1 0 0 1 7 10H4v4h3a1 1 0 0 1 .62.22l3.38 2.7V7.08zm5.61 2.13.1.08L18 10.6l1.3-1.3a1 1 0 0 1 1.49 1.32l-.08.1L19.4 12l1.3 1.3a1 1 0 0 1-1.32 1.49l-.1-.08L18 13.4l-1.3 1.3a1 1 0 0 1-1.49-1.32l.08-.1 1.3-1.3-1.3-1.28a1 1 0 0 1 1.32-1.5z"/>
</svg>
